!!!OTL: 33. Hanselemann (Reiterlied). / (Der gestiefelte Kater, Nr. 379.)
!!!ARE: Europa, Mitteleuropa, Deutschland; France, Unter - Elsass
!!!SCT: K3033
!!!TXL: @@SWG
!!!YEM: Copyright 1995, estate of Helmut Schaffrath.
**kern	**text
*clefG2	*
*M4/4	*
*met(c)	*
*k[f#]	*
*G:	*
=1	=1
{4b	Han-
8b	-ſe-
8b	-le-
4b	-mann
4g	hat
=2	=2
4f#	Ste-
8f#	-fe-
8f#	-le
4f#}	an,
{4d	hat's
=3	=3
4.d	Saw-
8f#	-le
4b	in
4a	der
=4	=4
2a	Schei-
4g	-de
4r}	.
=5	=5
{4g	's_Roß
4g	verkauft,
4g	.
4f#	hats
=6	=6
4e	Geld
4e	verſauft,
4e}	.
{4d	jetʒt
=7	=7
4.d	kommer
8f#	.
4b	ne-
4a	-mi
=8	=8
2a	rei-
4g	-te.
4r}	.
==	==
!!!AGN: Kinder - Lied, Reiter - Spiel
!!!ONB: ESAC (Essen Associative Code) Database: KINDER
!!!AMT: simple quadruple
!!!AIN: vox
!!!EED: Helmut Schaffrath
!!!EEV: 1.0
!!Oberelsass.
!!!GTL: Zweites Buch. Kinderspiel: Anhang. Nachtraege und Zusaetze. Allerlei Reime.
!!!URL-scan: https://archive.org/details/DeutschesKinderliedUndKinderspiel/page/706/mode/1up
!!!ENC: Anna Maria Matuszewska
!!!EEV: 2024/06/09
*-	*-
